trunk/public/assets/images/icons/white/refresh/question-circle-full.svg

<svg width="16" height="16" xmlns="http://www.w3.org/2000/svg" viewBox="0 0 16 16" shape-rendering="geometricPrecision" fill="#fff"><defs><mask id="a"><rect width="100%" height="100%"/><path d="M17.514 2.67l-.862-.55L16.65-1h-2.866v.558c-1.334-.3-2.758.103-3.723 1.067-1.568 1.57-1.553 4.14.036 5.732.78.777 1.81 1.205 2.9 1.205 1.072 0 2.078-.415 2.832-1.168C16.585 5.64 17 4.63 17 3.557V2.67h.514zm-3.373.888c0 .22-.057.54-.332.813-.443.444-1.23.427-1.69-.034-.475-.475-.49-1.234-.036-1.69.01-.01.02-.02.033-.03v.922h2.026v.02z" fill="#000"/></mask></defs><path d="M13.114 2.537h2.538V0h-.868v1.105c-1.204-.927-2.924-.863-4.016.227-1.187 1.188-1.162 3.12.035 4.317 1.2 1.197 3.13 1.223 4.32.036.584-.584.878-1.357.877-2.128h-.86c0 .558-.207 1.103-.626 1.522-.843.842-2.23.836-3.104-.036-.87-.872-.877-2.26-.035-3.105.73-.728 1.86-.82 2.72-.27h-.982v.867z" fill="#cb1800"/><path d="M8 .97C4.116.97.97 4.117.97 8.003c0 3.88 3.147 7.025 7.03 7.027 3.882-.002 7.03-3.146 7.03-7.027C15.03 4.116 11.882.97 8 .97zm-.083 11.554h-.01c-.664 0-1.122-.496-1.122-1.16 0-.686.47-1.156 1.132-1.156.688 0 1.136.47 1.147 1.156 0 .664-.458 1.16-1.147 1.16zm1.543-4.75c-.472.52-.663 1.02-.65 1.594v.23H7.116l-.012-.333c-.038-.65.177-1.312.75-1.988.41-.497.742-.905.742-1.34 0-.444-.293-.737-.93-.763-.423 0-.932.152-1.262.38L5.97 4.17c.472-.27 1.223-.524 2.127-.524 1.68 0 2.446.93 2.446 1.986 0 .97-.597 1.605-1.083 2.142z" mask="url(#a)"/></svg>

<?xml version="1.0"?><!DOCTYPE svg PUBLIC "-//W3C//DTD SVG 1.1//EN" "http://www.w3.org/Graphics/SVG/1.1/DTD/svg11.dtd"><svg width="16px" height="16px" xmlns="http://www.w3.org/2000/svg" viewBox="0 0 16 16" shape-rendering="geometricPrecision" fill="#fff"><defs><mask id="refresh-path"><rect fill="#fff" width="100%" height="100%"/><path d="M17.514,2.671l-0.862-0.552L16.65-1h-2.866v0.558c-1.334-0.3-2.758,0.103-3.723,1.067 c-1.569,1.569-1.554,4.141,0.035,5.732c0.779,0.777,1.809,1.205,2.901,1.205c1.071,0,2.077-0.415,2.831-1.168 C16.585,5.639,17.001,4.631,17,3.557l0-0.886H17.514z M14.141,3.558c0,0.22-0.058,0.539-0.333,0.813 c-0.443,0.443-1.23,0.426-1.69-0.035c-0.475-0.475-0.49-1.234-0.036-1.689c0.011-0.011,0.021-0.022,0.033-0.031l0,0.922h2.026 V3.558z" fill="#000"/></mask></defs><path display="inline" d="M13.114,2.537h2.538L15.651,0h-0.867v1.105 c-1.204-0.927-2.924-0.863-4.016,0.227C9.581,2.52,9.606,4.451,10.803,5.649c1.201,1.198,3.131,1.224,4.319,0.037 C15.707,5.102,16.001,4.329,16,3.558l-0.859,0.001c-0.001,0.557-0.208,1.102-0.627,1.521c-0.843,0.842-2.231,0.836-3.104-0.036 c-0.871-0.872-0.877-2.26-0.035-3.105c0.729-0.727,1.86-0.818,2.721-0.268h-0.983L13.114,2.537z" fill="#cb1800"/><g mask="url(#refresh-path)"><path d="M7.999,0.97c-3.882,0-7.029,3.146-7.029,7.033c0.001,3.881,3.147,7.025,7.029,7.027 c3.883-0.002,7.031-3.146,7.031-7.027C15.03,4.116,11.882,0.97,7.999,0.97z M7.917,12.524H7.906c-0.663,0-1.121-0.496-1.121-1.16 c0-0.686,0.471-1.156,1.132-1.156c0.688,0,1.136,0.471,1.147,1.156C9.065,12.028,8.606,12.524,7.917,12.524z M9.46,7.774 c-0.472,0.52-0.663,1.02-0.65,1.594v0.229H7.116L7.104,9.265c-0.038-0.65,0.177-1.312,0.75-1.988 C8.263,6.78,8.596,6.372,8.596,5.938c0-0.445-0.293-0.738-0.93-0.764c-0.423,0-0.932,0.152-1.262,0.381L5.97,4.169 c0.472-0.268,1.223-0.523,2.127-0.523c1.681,0,2.446,0.93,2.446,1.986C10.543,6.601,9.946,7.237,9.46,7.774z"/></g></svg>
